dest/img/logo-icon-white.svg

<svg fill="none" height="34" viewBox="0 0 34 34" width="34" xmlns="http://www.w3.org/2000/svg"><g clip-rule="evenodd" fill="#fff" fill-rule="evenodd"><path d="m15.6167 7.46309c0-1.47191-2.6491-2.2223-5.80719-3.11708-3.22281-.91245-6.88299-1.94947-9.55009-4.302363-.02144-.0189645-.05317-.0327569-.090904-.03922208-.051455-.00905125-.1076273-.00431012-.16251289.01508538l-.00600311.0021551v13.6355346c0 .8236.166372 1.5813.496972 2.2701.339604.7073.857588 1.3616 1.551378 1.9581 2.22329 1.9111 5.53701 2.8494 8.45965 3.6774 1.9429.5504 3.74 1.0594 5.1087 1.7913 0-11.0132 0-7.722 0-15.89101z"/><path d="m18.2507 7.14112c.1415.4961.6093.90556 1.3023 1.27019 1.1376-.46463 2.4857-.8465 3.9174-1.25208 2.1487-.60902 4.5041-1.27623 6.5156-2.346.3507-.18534.7851-.05.9695.30257.1843.35213.0501.78875-.3006.97408-2.1466 1.14176-4.5783 1.83051-6.7964 2.45893-.798.22628-1.5655.44394-2.273.66936.7422.24007 1.5659.47325 2.4274.71764.5269.14909 1.0659.30169 1.6101.46249 1.4982-.46034 3.0084-.99824 4.363-1.71803.3507-.18577.7851-.05043.9695.30214.1843.35256.0501.78875-.3006.97452-.8688.46157-1.7842.84947-2.7139 1.18917 1.9806.7081 3.9166 1.624 5.5126 2.9955.1089.0936.2148.1888.3182.2854.0339-.2496.051-.5065.051-.7698v-13.6355346l-.0056-.0021551c-.0553-.0193955-.1115-.02413663-.1629-.01508538-.0377.00646518-.0695.02025758-.0909.03922208-2.6671 2.352893-6.3273 3.389913-9.5501 4.302363-2.9188.82711-5.4032 1.53095-5.7626 2.79511z"/><path d="m18.2062 26.5362c0 1.472 2.6491 2.2228 5.8071 3.1171 3.2228.9129 6.883 1.9495 9.5501 4.3028.0215.019.0532.0323.0909.0388.0515.0095.1077.0048.163-.0151l.0055-.0021v-13.6355c0-.8237-.1663-1.5814-.4965-2.2693-.34-.7077-.858-1.362-1.5522-1.9585-2.2229-1.9107-5.5366-2.8499-8.4593-3.6774-1.9424-.5504-3.7399-1.0599-5.1086-1.7913z"/><path d="m14.2703 25.5884c-1.1381.4642-2.4858.8465-3.9179 1.2521-2.14872.6085-4.50408 1.2762-6.51555 2.3455-.35076.1854-.7847.0505-.96951-.3021-.18438-.3526-.04974-.7892.30059-.9745 2.14654-1.1418 4.57823-1.8301 6.79681-2.4585.79796-.2267 1.56556-.444 2.27256-.6694-.7422-.2405-1.5659-.4737-2.42736-.7176-.52698-.1496-1.06555-.3017-1.61012-.4629-1.4982.4603-3.00841.9982-4.36297 1.7184-.35076.1858-.7847.05-.96951-.3021-.18438-.3526-.04974-.7888.30059-.9745.86873-.4621 1.78464-.85 2.71383-1.1896-1.98017-.7078-3.9166-1.6237-5.512569-2.9956-.108913-.0935-.215254-.1883-.3181645-.2853-.0343035.25-.0510265.5069-.0510265.7698v13.6355l.00600311.0021c.05488559.0199.11105789.0246.16251289.0151.037734-.0064.069464-.0198.090904-.0388 2.6671-2.3533 6.32728-3.3899 9.55009-4.3028 2.91879-.8266 5.40319-1.5305 5.76209-2.7951-.1406-.4956-.6084-.9051-1.3013-1.2697z"/></g></svg>

<svg width="34" height="34" viewBox="0 0 34 34" fill="none" xmlns="http://www.w3.org/2000/svg">
<path fill-rule="evenodd" clip-rule="evenodd" d="M15.6167 7.46309C15.6167 5.99118 12.9676 5.24079 9.80951 4.34601C6.5867 3.43356 2.92652 2.39654 0.25942 0.043647C0.23798 0.0246825 0.20625 0.0108901 0.168516 0.00442492C0.117061 -0.00462633 0.0608887 0.000114798 0.00600311 0.0195103L0 0.0216654V13.6572C0 14.4808 0.166372 15.2385 0.496972 15.9273C0.836576 16.6346 1.35456 17.2889 2.04835 17.8854C4.27164 19.7965 7.58536 20.7348 10.508 21.5628C12.4509 22.1132 14.248 22.6222 15.6167 23.3541C15.6167 12.3409 15.6167 15.6321 15.6167 7.46309Z" fill="white"/>
<path fill-rule="evenodd" clip-rule="evenodd" d="M18.2507 7.14112C18.3922 7.63722 18.86 8.04668 19.553 8.41131C20.6906 7.94668 22.0387 7.56481 23.4704 7.15923C25.6191 6.55021 27.9745 5.883 29.986 4.81323C30.3367 4.62789 30.7711 4.76323 30.9555 5.1158C31.1398 5.46793 31.0056 5.90455 30.6549 6.08988C28.5083 7.23164 26.0766 7.92039 23.8585 8.54881C23.0605 8.77509 22.293 8.99275 21.5855 9.21817C22.3277 9.45824 23.1514 9.69142 24.0129 9.93581C24.5398 10.0849 25.0788 10.2375 25.623 10.3983C27.1212 9.93796 28.6314 9.40006 29.986 8.68027C30.3367 8.4945 30.7711 8.62984 30.9555 8.98241C31.1398 9.33497 31.0056 9.77116 30.6549 9.95693C29.7861 10.4185 28.8707 10.8064 27.941 11.1461C29.9216 11.8542 31.8576 12.7701 33.4536 14.1416C33.5625 14.2352 33.6684 14.3304 33.7718 14.427C33.8057 14.1774 33.8228 13.9205 33.8228 13.6572V0.0216654L33.8172 0.0195103C33.7619 0.000114798 33.7057 -0.00462633 33.6543 0.00442492C33.6166 0.0108901 33.5848 0.0246825 33.5634 0.043647C30.8963 2.39654 27.2361 3.43356 24.0133 4.34601C21.0945 5.17312 18.6101 5.87696 18.2507 7.14112Z" fill="white"/>
<path fill-rule="evenodd" clip-rule="evenodd" d="M18.2062 26.5362C18.2062 28.0082 20.8553 28.759 24.0133 29.6533C27.2361 30.5662 30.8963 31.6028 33.5634 33.9561C33.5849 33.9751 33.6166 33.9884 33.6543 33.9949C33.7058 34.0044 33.762 33.9997 33.8173 33.9798L33.8228 33.9777V20.3422C33.8228 19.5185 33.6565 18.7608 33.3263 18.0729C32.9863 17.3652 32.4683 16.7109 31.7741 16.1144C29.5512 14.2037 26.2375 13.2645 23.3148 12.437C21.3724 11.8866 19.5749 11.3771 18.2062 10.6457C18.2062 15.0144 18.2062 25.31 18.2062 26.5362Z" fill="white"/>
<path fill-rule="evenodd" clip-rule="evenodd" d="M14.2703 25.5884C13.1322 26.0526 11.7845 26.4349 10.3524 26.8405C8.20368 27.449 5.84832 28.1167 3.83685 29.186C3.48609 29.3714 3.05215 29.2365 2.86734 28.8839C2.68296 28.5313 2.8176 28.0947 3.16793 27.9094C5.31447 26.7676 7.74616 26.0793 9.96474 25.4509C10.7627 25.2242 11.5303 25.0069 12.2373 24.7815C11.4951 24.541 10.6714 24.3078 9.80994 24.0639C9.28296 23.9143 8.74439 23.7622 8.19982 23.601C6.70162 24.0613 5.19141 24.5992 3.83685 25.3194C3.48609 25.5052 3.05215 25.3694 2.86734 25.0173C2.68296 24.6647 2.8176 24.2285 3.16793 24.0428C4.03666 23.5807 4.95257 23.1928 5.88176 22.8532C3.90159 22.1454 1.96516 21.2295 0.369191 19.8576C0.260278 19.7641 0.153937 19.6693 0.0510265 19.5723C0.016723 19.8223 0 20.0792 0 20.3421V33.9776L0.00600311 33.9797C0.0608887 33.9996 0.117061 34.0043 0.168516 33.9948C0.20625 33.9884 0.23798 33.975 0.25942 33.956C2.92652 31.6027 6.5867 30.5661 9.80951 29.6532C12.7283 28.8266 15.2127 28.1227 15.5716 26.8581C15.431 26.3625 14.9632 25.953 14.2703 25.5884Z" fill="white"/>
</svg>
